X:34
T:Waltz. 2voices Dix.34
M:3/8
L:1/8
Q:3/8=60
S:Anon. MS dated 1811, from Dixon collection, Holton le Moor, Lincs.
R:waltz
N:Repeat marks added at start
O:England;Lincolnshire;Holton le Moor
Z:vmp.R.Greig 2012 <http://www.village-music-project.org.uk>
K:F
[V:1]|:[cA]|[A/F/][B/G/][cA][cA]|[d/B/][e/c/][fd][fd]|[G/E/][A/F/][BG][BG]|[B2G2][AF]|G/g/f/e/d/c/|f/a/c’c’|[cA][dB][ec]|[f2F2]:|
[V:2]|:z|F,,F,F,|B,,B,B,|C,CC|F,B,,F,,|C,,C,C,|F,,F,F,|A,,B,,C,|F,F,,:|
[V:1]|:c|c’/b/gg|g/e/cc|c’/a/ff|c/f/aa|c’/c’/gg|g/e/cc|c’/a/ff|[f2F2]:|
[V:2]|:z|[CB,G,][CB,G,][CB,G,]|[CB,G,][CB,G,][CB,G,]|[CA,F,][CA,F,][CA,F,]|[CA,F,][CA,F,][CA,F,]|[CG,][CG,][CG,]|[CG,][CG,][CG,]|[CA,F,][CA,F,][CA,F,]|[C2A,2F,2]:|
[V:1]|:[cA]|[cA][=BG][AF]|[fdA][e^cG][fdA]|[dF][^cE][dF]|[B2G2][GE]|[AF]>[BG][cA]|[cA]>[BG][AF]|GG/F/G|A2F|
[V:2]|:z|F,A,C|F,B,D|F,A,C|C,G,C|F,A,C|F,A,C|C,G,C|F,A,C|
[V:1][cA]>[BG][AF]|[fd][e^c][fd]|[dB][^cA][dB]|[B2G2][GE]|[AF]>[BG][cA]|[cA]>[BG][AF]|GG/F/G/A/|F2:|
[V:2]F,A,C|F,B,D|G,B,C|C,G,C|D,A,C|D,A,C|C,G,C|F,F,,:|

